build/system/UndoSolid.svg

<svg xmlns="http://www.w3.org/2000/svg" fill="none" viewBox="0 0 24 24" focusable="false"><path d="M0 0H24V24H0z"/><path fill="#74767B" fill-rule="evenodd" d="M21 12C21 16.9706 16.9706 21 12 21C7.02944 21 3 16.9706 3 12C3 7.02944 7.02944 3 12 3C16.9706 3 21 7.02944 21 12ZM9.22647 9.39688L10.8468 7.77651C11.1007 7.52267 11.1007 7.11112 10.8468 6.85728C10.593 6.60343 10.1814 6.60343 9.92759 6.85728L7.19761 9.58726C6.94377 9.8411 6.94377 10.2527 7.19761 10.5065L9.92759 13.2365C10.1814 13.4903 10.593 13.4903 10.8468 13.2365C11.1007 12.9826 11.1007 12.5711 10.8468 12.3172L9.22647 10.6969L13.385 10.6969C14.6829 10.6969 15.735 11.749 15.735 13.0469L15.735 13.3076C15.735 14.6055 14.6829 15.6576 13.385 15.6576L11.6766 15.6576C11.3176 15.6576 11.0266 15.9486 11.0266 16.3076C11.0266 16.6666 11.3176 16.9576 11.6766 16.9576L13.385 16.9576C15.4009 16.9576 17.035 15.3235 17.035 13.3076L17.035 13.0469C17.035 11.031 15.4009 9.39688 13.385 9.39688L9.22647 9.39688Z"/></svg>

<svg xmlns="http://www.w3.org/2000/svg" fill="none" viewBox="0 0 24 24" focusable="false"><path fill="#74767B" fill-rule="evenodd" d="M21 12a9 9 0 0 1-9 9c-4.98 0-9-4.03-9-9 0-4.98 4.02-9 9-9 4.97 0 9 4.02 9 9M9.22 9.39l1.62-1.62a.64.64 0 0 0 0-.92.66.66 0 0 0-.92 0L7.19 9.58c-.25.26-.25.67 0 .92l2.73 2.73c.26.26.67.26.92 0a.64.64 0 0 0 0-.92l-1.62-1.62h4.16c1.3 0 2.35 1.05 2.35 2.35v.26c0 1.3-1.05 2.35-2.35 2.35h-1.71c-.36 0-.65.29-.65.65s.29.65.65.65h1.71c2.02 0 3.65-1.63 3.65-3.65v-.26c0-2.01-1.63-3.65-3.65-3.65z"/></svg>
